<?xml version="1.0" encoding="UTF-8"?>
<map version="1.10" tiledversion="1.12.2" orientation="orthogonal" renderorder="right-down" width="3" height="20" tilewidth="32" tileheight="32" infinite="1" nextlayerid="2" nextobjectid="1">
 <editorsettings>
  <export target="map.tmj" format="json"/>
 </editorsettings>
 <tileset firstgid="1" source="minigame_tileset1.tsx"/>
 <layer id="1" name="Tile Layer 1" width="3" height="20">
  <data encoding="csv">
   <chunk x="-16" y="-960" width="16" height="16">
0,0,0,0,0,0,0,0,0,0,0,0,0,0,0,0,
0,0,0,0,0,0,0,0,0,0,0,0,0,0,0,0,
0,0,0,0,0,0,0,0,6,6,6,6,7,6,6,0,
0,0,0,0,0,0,0,6,6,0,0,0,0,0,6,6,
0,0,0,0,0,0,0,6,0,0,0,0,0,0,0,6,
0,0,0,0,0,0,0,6,0,0,0,0,0,0,0,6,
0,0,0,0,0,0,0,6,5,0,0,0,0,0,0,6,
0,0,0,0,0,0,0,6,4,0,0,0,0,0,0,0,
0,0,0,0,0,0,0,6,4,0,0,0,0,0,0,0,
0,0,0,0,0,0,0,6,0,0,0,0,0,0,0,0,
0,0,0,0,0,0,0,7,0,0,0,0,0,0,0,0,
0,0,0,0,0,0,0,6,0,0,0,0,0,0,0,0,
0,0,0,0,0,0,6,6,0,0,0,0,0,0,0,0,
0,0,0,0,6,6,6,0,0,0,0,0,0,0,0,0,
0,6,6,6,6,0,0,0,0,0,0,0,0,0,0,0,
6,7,5,0,0,0,0,0,0,0,0,0,0,0,0,0
</chunk>
   <chunk x="0" y="-960" width="16" height="16">
0,0,0,0,0,0,0,0,0,0,0,0,0,0,0,0,
0,0,0,0,0,0,0,0,0,0,0,0,0,0,0,0,
0,0,0,0,0,0,0,0,0,0,0,0,0,0,0,0,
0,0,0,0,0,0,0,0,0,0,0,0,0,0,0,0,
0,0,0,0,0,0,0,0,0,0,0,0,0,0,0,0,
0,0,0,0,0,0,0,0,0,0,0,0,0,0,0,0,
7,6,0,0,0,0,0,0,0,0,0,0,0,0,0,0,
0,6,6,6,0,0,0,0,0,0,0,0,0,0,0,0,
0,0,0,6,6,0,0,0,0,0,0,0,0,0,0,0,
0,0,0,0,6,6,0,0,0,0,0,0,0,0,0,0,
0,0,0,0,0,6,6,0,0,0,0,0,0,0,0,0,
0,0,0,0,0,0,6,0,0,0,0,0,0,0,0,0,
0,0,0,0,0,0,6,6,0,0,0,0,0,0,0,0,
0,0,0,0,0,0,0,7,0,0,0,0,0,0,0,0,
0,0,0,0,0,0,0,7,0,0,0,0,0,0,0,0,
0,0,0,0,4,4,5,6,0,0,0,0,0,0,0,0
</chunk>
   <chunk x="-32" y="-944" width="16" height="16">
0,0,0,0,0,0,0,0,0,0,0,0,0,0,6,6,
0,0,0,0,0,0,0,0,0,0,0,0,0,0,6,4,
0,0,0,0,0,0,0,0,0,0,0,0,0,0,6,4,
0,0,0,0,0,0,0,0,0,0,0,0,0,0,6,0,
0,0,0,0,0,0,0,0,0,0,0,0,0,6,6,0,
0,0,0,0,0,0,0,0,0,0,0,0,0,6,0,0,
0,0,0,0,0,0,0,0,0,0,0,6,6,6,0,0,
0,0,0,0,0,0,0,0,0,0,6,6,0,0,0,0,
0,0,0,0,0,0,0,0,0,0,7,5,0,0,0,0,
0,0,0,0,0,0,0,0,0,0,7,4,4,0,0,0,
0,0,0,0,0,0,0,0,0,0,7,4,4,0,0,0,
0,0,0,0,0,0,0,0,0,0,6,4,0,0,0,0,
0,0,0,0,0,0,0,0,0,0,6,0,0,0,0,0,
0,0,0,0,0,0,0,0,0,0,6,6,0,0,0,0,
0,0,0,0,0,0,0,0,0,0,0,6,0,0,0,0,
0,0,0,0,0,0,0,0,0,0,0,6,0,0,0,0
</chunk>
   <chunk x="-16" y="-944" width="16" height="16">
6,4,0,0,0,0,0,0,0,0,0,0,0,0,0,0,
4,4,0,0,0,0,0,0,0,0,0,0,0,0,0,0,
0,0,0,0,0,0,0,0,0,0,0,0,0,0,0,0,
0,0,0,0,0,0,0,0,0,0,0,0,0,0,0,0,
0,0,0,0,0,0,0,0,0,0,0,0,0,0,0,0,
0,0,0,0,0,0,0,0,0,0,0,0,0,0,0,0,
0,0,0,0,0,0,0,0,0,0,0,0,0,0,0,0,
0,0,0,0,0,0,0,0,0,0,0,0,0,0,0,0,
0,0,0,0,0,0,0,0,0,0,0,0,0,0,0,0,
0,0,0,0,0,0,0,0,0,0,0,0,0,0,0,0,
0,0,0,0,0,0,0,0,0,0,0,0,0,0,0,0,
0,0,0,0,0,0,0,0,0,0,0,0,0,0,0,0,
0,0,0,0,0,0,0,0,0,0,0,0,0,0,0,0,
0,0,0,0,0,0,0,0,0,0,0,0,0,0,0,0,
0,0,0,0,0,0,0,0,0,0,0,0,0,0,0,0,
0,0,0,0,0,0,0,0,0,0,0,0,0,0,0,0
</chunk>
   <chunk x="0" y="-944" width="16" height="16">
0,0,0,4,4,5,6,6,0,0,0,0,0,0,0,0,
0,0,0,4,6,6,6,0,0,0,0,0,0,0,0,0,
0,0,0,7,7,7,6,6,6,6,0,0,0,0,0,0,
0,0,0,0,0,0,4,4,4,6,6,0,0,0,0,0,
0,0,0,0,0,0,0,0,4,4,6,0,0,0,0,0,
0,0,0,0,0,0,0,0,0,4,6,6,0,0,0,0,
0,0,0,0,0,0,0,0,0,0,0,6,0,0,0,0,
0,0,0,0,0,0,0,0,0,0,0,6,0,0,0,0,
0,0,0,0,0,0,0,0,0,0,0,7,0,0,0,0,
0,0,0,0,0,0,0,0,0,0,0,6,0,0,0,0,
0,0,0,0,0,0,0,0,0,0,0,6,0,0,0,0,
0,0,0,0,0,0,0,0,0,0,6,6,0,0,0,0,
0,0,0,0,0,0,0,0,0,0,6,0,0,0,0,0,
0,0,0,0,0,0,0,0,0,0,6,0,0,0,0,0,
0,0,0,0,0,0,0,0,0,6,6,0,0,0,0,0,
0,0,0,0,0,4,4,4,6,6,0,0,0,0,0,0
</chunk>
   <chunk x="320" y="-944" width="16" height="16">
0,0,0,0,0,0,0,0,0,0,0,0,0,0,0,0,
0,0,0,0,0,0,0,0,0,0,0,0,0,0,0,0,
0,0,0,0,0,0,0,0,0,0,0,0,0,0,0,0,
0,0,0,0,0,0,0,0,0,0,0,0,0,0,0,0,
0,0,0,0,0,0,0,0,0,0,0,0,0,0,0,0,
0,0,0,0,0,0,0,0,0,0,0,0,0,0,0,0,
0,0,0,0,0,0,0,0,0,0,0,0,0,0,0,0,
0,0,0,0,0,0,0,0,0,0,0,0,0,0,0,0,
0,0,0,0,0,0,0,0,0,0,0,0,0,0,0,0,
0,0,0,0,0,0,0,0,0,0,0,0,0,0,0,0,
0,0,0,0,0,0,0,0,0,0,1,0,0,0,0,0,
0,0,0,0,0,0,0,0,0,0,0,0,0,0,0,0,
0,0,0,0,0,0,0,0,0,0,0,0,0,0,0,0,
0,0,0,0,0,0,0,0,0,0,0,0,0,0,0,0,
0,0,0,0,0,0,0,0,0,0,0,0,0,0,0,0,
0,0,0,0,0,0,0,0,0,0,0,0,0,0,0,0
</chunk>
   <chunk x="-32" y="-928" width="16" height="16">
0,0,0,0,0,0,0,0,0,0,0,6,0,0,0,0,
0,0,0,0,0,0,0,0,0,0,0,7,5,0,0,0,
0,0,0,0,0,0,0,0,0,0,0,6,6,6,6,6,
0,0,0,0,0,0,0,0,0,0,0,0,0,0,0,0,
0,0,0,0,0,0,0,0,0,0,0,0,0,0,0,0,
0,0,0,0,0,0,0,0,0,0,0,0,0,0,0,0,
0,0,0,0,0,0,0,0,0,0,0,0,0,0,0,0,
0,0,0,0,0,0,0,0,0,0,0,0,0,0,0,0,
0,0,0,0,0,0,0,0,0,0,0,0,0,0,0,0,
0,0,0,0,0,0,0,0,0,0,0,0,0,0,0,0,
0,0,0,0,0,0,0,0,0,0,0,0,0,0,0,0,
0,0,0,0,0,0,0,0,0,0,0,0,0,0,0,0,
0,0,0,0,0,0,0,0,0,0,0,0,0,0,0,0,
0,0,0,0,0,0,0,0,0,0,0,0,0,0,0,0,
0,0,0,0,0,0,0,0,0,0,0,0,0,0,0,0,
0,0,0,0,0,0,0,0,0,0,0,0,0,0,0,0
</chunk>
   <chunk x="-16" y="-928" width="16" height="16">
0,0,4,4,0,0,0,0,0,0,0,0,0,0,0,0,
0,4,4,4,4,6,6,7,7,6,6,5,0,0,0,0,
6,6,6,6,6,6,0,0,0,0,6,6,6,6,6,6,
0,0,0,0,0,0,0,0,0,0,0,0,0,0,0,0,
0,0,0,0,0,0,0,0,0,0,0,0,0,0,0,0,
0,0,0,0,0,0,0,0,0,0,0,0,0,0,0,0,
0,0,0,0,0,0,0,0,0,0,0,0,0,0,0,0,
0,0,0,0,0,0,0,0,0,0,0,0,0,0,0,0,
0,0,0,0,0,0,0,0,0,0,0,0,0,0,0,0,
0,0,0,0,0,0,0,0,0,0,0,0,0,0,0,0,
0,0,0,0,0,0,0,0,0,0,0,0,0,0,0,0,
0,0,0,0,0,0,0,0,0,0,0,0,0,0,0,0,
0,0,0,0,0,0,0,0,0,0,0,0,0,0,0,0,
0,0,0,0,0,0,0,0,0,0,0,0,0,0,0,0,
0,0,0,0,0,0,0,0,0,0,0,0,0,0,0,0,
0,0,0,0,0,0,0,0,0,0,0,0,0,0,0,0
</chunk>
   <chunk x="0" y="-928" width="16" height="16">
0,0,0,0,4,4,6,6,6,0,0,0,0,0,0,0,
0,6,6,6,6,6,6,0,0,0,0,0,0,0,0,0,
6,6,0,0,0,0,0,0,0,0,0,0,0,0,0,0,
0,0,0,0,0,0,0,0,0,0,0,0,0,0,0,0,
0,0,0,0,0,0,0,0,0,0,0,0,0,0,0,0,
0,0,0,0,0,0,0,0,0,0,0,0,0,0,0,0,
0,0,0,0,0,0,0,0,0,0,0,0,0,0,0,0,
0,0,0,0,0,0,0,0,0,0,0,0,0,0,0,0,
0,0,0,0,0,0,0,0,0,0,0,0,0,0,0,0,
0,0,0,0,0,0,0,0,0,0,0,0,0,0,0,0,
0,0,0,0,0,0,0,0,0,0,0,0,0,0,0,0,
0,0,0,0,0,0,0,0,0,0,0,0,0,0,0,0,
0,0,0,0,0,0,0,0,0,0,0,0,0,0,0,0,
0,0,0,0,0,0,0,0,0,0,0,0,0,0,0,0,
0,0,0,0,0,0,0,0,0,0,0,0,0,0,0,0,
0,0,0,0,0,0,0,0,0,0,0,0,0,0,0,0
</chunk>
  </data>
 </layer>
</map>
